Papirus/16x16/apps/kaku.svg

<svg xmlns="http://www.w3.org/2000/svg" width="16" height="16" version="1.1" viewBox="0 0 16 16">
 <rect width="16" height="16" x="-16" y="-16" rx="4.8" ry="4.8" transform="matrix(0,-1,-1,0,0,0)" style="fill:#8f5066"/>
 <path style="fill:#ffffff" d="m 11.505859,2.1986521 c -0.228739,0 -0.516179,0.038332 -0.638671,0.083984 -0.52295,0.194894 -0.9297743,0.7993524 -1.1621099,1.7304688 -0.3737332,1.4977816 -1.0158076,2.1660156 -2.0820312,2.1660156 -0.3257256,0 -0.3291531,0.06427 -0.017578,0.3554687 0.6049304,0.5653621 0.9745659,1.4130512 1.0742187,2.4707029 0.039176,0.415649 0.097262,0.599307 0.2441406,0.771485 0.1059732,0.124228 0.236222,0.2246089 0.2910157,0.2246089 0.054793,0 0.1608165,-0.1828709 0.2363281,-0.4082029 0.1014838,-0.302825 0.1548778,-0.837523 0.2011718,-2.0488279 0.053675,-1.4044184 0.087185,-1.7027955 0.2363281,-2.0878907 0.3817671,-0.9857332 1.2342231,-1.712498 2.1035161,-1.3230312 0.417379,0.1869996 0.779518,0.9304904 1.308593,1.8562344 0.392388,0.686584 0.832932,1.203125 1.025391,1.203125 0.09722,0 0.09821,-0.1327527 0.002,-0.1914063 C 14.132537,6.8821692 13.987717,6.1243447 13.962891,5.0990427 13.938059,4.0731051 13.928619,4.0195489 13.675781,3.5306833 13.249643,2.7067261 12.422036,2.198652 11.505859,2.1986521 Z M 5.859375,6.0287302 c -0.075623,6.8e-4 -0.1620884,0.00768 -0.2695312,0.017578 -0.5082345,0.046814 -0.7617188,0.1138311 -0.7617188,0.2011719 0,0.02854 0.3150706,0.3666127 0.6992188,0.7519531 0.7641128,0.766478 1.1304361,1.3772529 1.296875,2.1640629 0.064565,0.220656 0.06208,0.670092 0.070312,0.9667959 C 6.3518997,10.369691 6.0012785,10.90634 6,11.499433 c 0,0.828427 0.6715729,1.5 1.5,1.5 0.8284271,0 1.5,-0.671573 1.5,-1.5 C 8.9995822,10.992529 8.7431772,10.520127 8.3183594,10.243574 8.2652384,9.9411891 8.2304684,9.4814241 8.2304684,9.3041211 c 0,-1.3074435 -0.6833673,-2.5113551 -1.75,-3.0839847 C 6.2103631,6.0751292 6.086243,6.0266746 5.859375,6.0287302 Z M 4.1855469,6.5502145 3.7539062,6.8431833 C 3.1207184,7.2733385 2.5037788,7.9717833 2.171875,8.6341991 1.9089318,9.1589811 1.8767479,9.2934271 1.8457031,9.9799021 1.8241101,10.45729 1.7653131,10.834458 1.6875,10.985761 c -0.1689458,0.328502 -0.085878,0.63643 0.1914062,0.705078 0.1167372,0.0289 0.3915029,0.23431 0.6113282,0.455078 0.7360456,0.739196 2.1361827,1.043148 3.3867187,0.734375 0.3237728,-0.07994 0.3630502,-0.152095 0.171875,-0.308593 C 5.9801631,12.515489 5.8334867,12.29524 5.7226562,12.079511 5.3436239,11.341714 5.4854077,10.423562 6.0703125,9.8314641 c 0.2653908,-0.268652 0.2804502,-0.311002 0.234375,-0.642578 -0.027144,-0.19546 -0.1389184,-0.533778 -0.25,-0.75 C 5.8283067,7.9982244 4.8758716,6.9703734 4.4589844,6.7162302 Z M 3.5,9.9994331 c 0.2761424,0 0.5,0.2238579 0.5,0.4999999 0,0.276142 -0.2238576,0.5 -0.5,0.5 -0.2761424,0 -0.5,-0.223858 -0.5,-0.5 0,-0.276142 0.2238576,-0.4999999 0.5,-0.4999999 z m 4,0.9999999 c 0.2761424,0 0.5,0.223858 0.5,0.5 0,0.276142 -0.2238576,0.5 -0.5,0.5 -0.2761424,0 -0.5,-0.223858 -0.5,-0.5 0,-0.276142 0.2238576,-0.5 0.5,-0.5 z"/>
</svg>

<svg xmlns="http://www.w3.org/2000/svg" width="16" height="16" version="1.1" viewBox="0 0 16 16">
 <path style="fill:#4d4d4d" d="M 15.8,11.12 V 4.8799996 C 15.8,2.28728 13.71272,0.2 11.12,0.2 H 4.88 C 2.28728,0.2 0.2,2.28728 0.2,4.8799996 V 11.12 c 0,2.59272 2.08728,4.68 4.68,4.68 h 6.24 c 2.59272,0 4.68,-2.08728 4.68,-4.68 z"/>
 <g transform="scale(0.11707372)">
  <path d="m 122.60742,10.060547 0.94141,18.425781 6.67578,-9.595703 c -2.10916,-3.298828 -4.67727,-6.270196 -7.61719,-8.830078 z" style="fill:#612e18"/>
  <path d="M 104.39844,0.93359375 76.03125,21.814453 123.54883,28.486328 122.60742,10.060547 C 117.5,5.6133569 111.27783,2.4152348 104.39844,0.93359375 Z" style="fill:#5c312d"/>
  <path d="M 80.095703,0 76.03125,21.814453 104.39844,0.93359375 C 101.58517,0.32768866 98.665656,0 95.666016,0 Z" style="fill:#37232c"/>
  <path d="M 47.335938,0 76.03125,21.814453 80.095703,0 Z" style="fill:#3e2941"/>
  <path d="M 46.017578,0 54.271484,40.160156 76.03125,21.814453 47.335938,0 Z" style="fill:#58405b"/>
  <path d="M 45.341797,0 30.732422,40.164062 54.271484,40.160156 46.017578,0 Z" style="fill:#6d5174"/>
  <path d="M 44.050781,0 15.511719,19.683594 30.732422,40.164062 45.341797,0 Z" style="fill:#5d4e75"/>
  <path d="m 15.511719,19.683594 -14.67382838,13 C 0.37019144,34.971025 0.10332347,37.332529 0.03125,39.744141 l 30.701172,0.419921 z" style="fill:#665f88"/>
  <path d="M 15.511719,19.683594 5.0507812,21.220703 C 3.1095404,24.754025 1.6717061,28.605554 0.83789062,32.683594 Z" style="fill:#4c5378"/>
  <path d="M 41,0 C 31.239168,0 22.301107,3.3832276 15.275391,9.0371094 L 15.511719,19.683594 44.050781,0 Z" style="fill:#312c47"/>
  <path d="M 15.275391,9.0371094 C 13.048686,10.82903 11.013522,12.846177 9.2070312,15.060547 l 6.3046878,4.623047 z" style="fill:#3c3c5c"/>
  <path d="m 9.2070312,15.060547 c -1.5631242,1.916055 -2.9566394,3.976702 -4.15625,6.160156 L 15.511719,19.683594 Z" style="fill:#454669"/>
  <path d="m 130.22461,18.890625 -6.67578,9.595703 9.91211,35.791016 3.20508,-21.761719 V 41 c 0,-8.157004 -2.3667,-15.736309 -6.44141,-22.109375 z" style="fill:#6e2d34"/>
  <path d="m 136.66602,42.515625 -3.20508,21.761719 3.20508,4.86914 z" style="fill:#90131b"/>
  <path d="m 133.46094,64.277344 -20.72266,25.060547 23.92774,-5.56836 V 69.146484 Z" style="fill:#711c21"/>
  <path d="m 136.66602,83.769531 -23.92774,5.56836 20.27734,23.291019 c 2.33902,-5.16555 3.6504,-10.90427 3.6504,-16.962894 z" style="fill:#3a0e0c"/>
  <path d="m 112.73828,89.337891 3.65625,38.490229 4.56836,0.13672 c 5.15949,-4.04043 9.31525,-9.29041 12.05273,-15.33593 z" style="fill:#5b180c"/>
  <path d="m 116.39453,127.82812 0.0117,3.23633 c 1.59148,-0.93149 3.11262,-1.96878 4.55664,-3.09961 z" style="fill:#3e0c05"/>
  <path d="m 102.95898,119.51367 7.00782,14.60547 c 2.24892,-0.83209 4.39836,-1.86003 6.43945,-3.05469 l -0.0117,-3.23633 z" style="fill:#81210f"/>
  <path d="m 102.95898,119.51367 -17.550777,17.15235 h 10.257813 c 5.034914,0 9.851954,-0.90083 14.300784,-2.54688 z" style="fill:#af5246"/>
  <path d="M 102.95898,119.51367 63.6875,136.3125 63.320312,136.66602 H 85.408203 Z" style="fill:#c98173"/>
  <path d="M 81.421875,89.322266 63.6875,136.3125 102.95898,119.51367 Z" style="fill:#e1816d"/>
  <path d="M 50.386302,98.461191 63.6875,136.3125 81.421875,89.322266 Z" style="fill:#eeb9bd"/>
  <path style="fill:#ddb0d9" d="M 50.386302,98.461191 38.722589,110.77557 63.6875,136.3125 Z"/>
  <path d="m 38.722656,110.77539 -3.919922,25.42773 c 2.020528,0.30389 4.089396,0.4629 6.197266,0.4629 H 63.320312 L 63.6875,136.3125 Z" style="fill:#ebc3e2"/>
  <path d="m 5.015625,109.51367 25.199219,25.72071 c 1.497638,0.40462 3.026358,0.7339 4.58789,0.96874 l 3.919922,-25.42773 z" style="fill:#a576cf"/>
  <path d="m 5.015625,109.51367 0.796875,7.25586 c 5.368171,8.95946 14.062853,15.6714 24.402344,18.46485 z" style="fill:#b77abf"/>
  <path d="m 5.015625,109.51367 -2.3203125,0.82422 c 0.8562557,2.24624 1.8980748,4.39695 3.1171875,6.43164 z" style="fill:#ab5ca1"/>
  <path d="m 1.9355469,108.17773 c 0.2321156,0.72975 0.48868,1.44901 0.7597656,2.16016 l 2.3203125,-0.82422 z" style="fill:#b88ecc"/>
  <path d="m 5.015625,109.51367 33.707031,1.26172 -6.905035,-40.181672 z" style="fill:#b88ecc"/>
  <path d="m 0,90.679688 v 4.986328 c 0,4.367744 0.6817751,8.569974 1.9355469,12.511714 l 3.0800781,1.33594 z" style="fill:#9550b5"/>
  <path d="M 19.013672,62.308594 0,65.751953 v 24.927735 l 5.015625,18.833982 z" style="fill:#9165a8"/>
  <path d="M 5.015625,109.51367 31.817621,70.593718 19.013672,62.308594 Z" style="fill:#9d5cba"/>
  <path style="fill:#836492" d="M 30.733074,40.164956 42.004843,57.425021 19.013672,62.308594 Z"/>
  <path d="M 0,54.759766 V 65.751953 L 19.013672,62.308594 Z" style="fill:#826f9e"/>
  <path d="M 30.732422,40.164062 0,54.255859 v 0.503907 l 19.013672,7.548828 z" style="fill:#665e89"/>
  <path d="M 0.03125,39.744141 C 0.01874889,40.162434 0,40.57857 0,41 V 54.255859 L 30.732422,40.164062 Z" style="fill:#5f577f"/>
  <path style="fill:#846288" d="M 30.733074,40.164956 42.004843,57.425021 54.271484,40.160156 Z"/>
  <path d="M 76.031369,21.814712 78.367136,60.646829 54.271484,40.160156 Z" style="fill:#825a67"/>
  <path style="fill:#97605e" d="m 76.03125,21.814453 2.335886,38.832376 24.564264,4.169577 z"/>
  <path d="M 102.9314,64.816406 76.031369,21.814712 123.54798,28.485639 Z" style="fill:#874645"/>
  <path d="M 123.54798,28.485639 102.9314,64.816406 133.46094,64.277344 Z" style="fill:#8d2635"/>
  <path style="fill:#943837" d="M 112.73828,89.337891 102.9314,64.816406 133.46094,64.277344 Z"/>
  <path style="fill:#a45c50" d="m 102.9314,64.816406 9.80688,24.521485 -31.316405,-0.01563 z"/>
  <path d="M 102.95898,119.51367 81.421875,89.322266 112.73828,89.337891 Z" style="fill:#ab4c39"/>
  <path style="fill:#963b20" d="m 112.73828,89.337891 -9.7793,30.175779 13.4362,8.31543 z"/>
  <path style="fill:#b86d5f" d="M 81.421875,89.322266 78.367136,60.646829 102.9314,64.816406 Z"/>
  <path d="M 31.817621,70.593718 19.013672,62.308594 42.004843,57.425021 Z" style="fill:#997599"/>
  <path d="M 54.271484,40.160156 60.433764,70.996863 42.004843,57.425021 Z" style="fill:#936982"/>
  <path d="M 31.817621,70.593718 42.004843,57.425021 60.433764,70.996863 Z" style="fill:#856385"/>
  <path style="fill:#c38e97" d="M 50.386302,98.461191 31.817621,70.593718 81.421875,89.322266 Z"/>
  <path style="fill:#b37b96" d="M 81.421875,89.322261 60.433764,70.996863 31.817621,70.593718 Z"/>
  <path d="M 60.433764,70.996863 54.271484,40.160156 78.367136,60.646829 Z" style="fill:#9c6c71"/>
  <path d="M 60.433764,70.996863 78.367136,60.646829 81.421875,89.322266 Z" style="fill:#e5a98e"/>
  <path d="M 31.817621,70.593718 38.722589,110.77557 50.386302,98.461191 Z" style="fill:#b48dd7"/>
 </g>
 <path style="fill:#ffffff" d="m 11.505859,2.1992188 c -0.228739,0 -0.516179,0.038332 -0.638671,0.083984 -0.52295,0.194894 -0.9297743,0.7993524 -1.1621099,1.7304688 -0.3737332,1.4977816 -1.0158076,2.1660156 -2.0820312,2.1660156 -0.3257256,0 -0.3291531,0.06427 -0.017578,0.3554687 0.6049304,0.5653621 0.9745659,1.4130512 1.0742187,2.4707032 0.039176,0.4156484 0.097262,0.5993063 0.2441406,0.7714844 0.1059732,0.1242286 0.236222,0.2246092 0.2910157,0.2246092 0.054793,0 0.1608165,-0.182871 0.2363281,-0.408203 C 9.5526558,9.2909243 9.6060498,8.7562263 9.6523438,7.5449219 9.7060185,6.1405035 9.7395287,5.8421264 9.8886719,5.4570312 10.270439,4.471298 11.122895,3.7445332 11.992188,4.134 c 0.417379,0.1869996 0.779518,0.9304904 1.308593,1.8562344 0.392388,0.686584 0.832932,1.203125 1.025391,1.203125 0.09722,0 0.09821,-0.1327527 0.002,-0.1914063 C 14.132537,6.8827359 13.987717,6.1249114 13.962891,5.0996094 13.938059,4.0736718 13.928619,4.0201156 13.675781,3.53125 13.249643,2.7072928 12.422036,2.1992187 11.505859,2.1992188 Z M 5.859375,6.0292969 C 5.783752,6.0299769 5.6972866,6.036977 5.5898438,6.046875 5.0816093,6.093689 4.828125,6.1607061 4.828125,6.2480469 c 0,0.02854 0.3150706,0.3666127 0.6992188,0.7519531 0.7641128,0.766478 1.1304361,1.3772533 1.296875,2.1640625 0.064565,0.2206563 0.06208,0.6700928 0.070312,0.9667965 C 6.3518997,10.370258 6.0012785,10.906907 6,11.5 6,12.328427 6.6715729,13 7.5,13 8.3284271,13 9,12.328427 9,11.5 8.9995822,10.993096 8.7431772,10.520694 8.3183594,10.244141 8.2652387,9.9417555 8.2304688,9.4819903 8.2304688,9.3046875 c 0,-1.3074432 -0.6833673,-2.5113548 -1.75,-3.0839844 C 6.2103631,6.0756959 6.086243,6.0272413 5.859375,6.0292969 Z M 4.1855469,6.5507812 3.7539062,6.84375 C 3.1207184,7.2739052 2.5037788,7.97235 2.171875,8.6347656 1.9089318,9.159548 1.8767479,9.2939934 1.8457031,9.9804688 1.8241101,10.457857 1.765313,10.835025 1.6875,10.986328 c -0.1689458,0.328502 -0.085878,0.63643 0.1914062,0.705078 0.1167372,0.0289 0.3915029,0.23431 0.6113282,0.455078 0.7360456,0.739196 2.1361827,1.043148 3.3867187,0.734375 0.3237728,-0.07994 0.3630502,-0.152095 0.171875,-0.308593 C 5.9801633,12.516055 5.8334867,12.295807 5.7226562,12.080078 5.3436239,11.342281 5.4854077,10.424129 6.0703125,9.8320312 6.3357033,9.563379 6.3507627,9.5210283 6.3046875,9.1894531 c -0.027144,-0.19546 -0.1389184,-0.533778 -0.25,-0.75 C 5.8283067,7.9987911 4.8758716,6.9709401 4.4589844,6.7167969 Z M 3.5,10 C 3.7761424,10 4,10.223858 4,10.5 4,10.776142 3.7761424,11 3.5,11 3.2238576,11 3,10.776142 3,10.5 3,10.223858 3.2238576,10 3.5,10 Z m 4,1 C 7.7761424,11 8,11.223858 8,11.5 8,11.776142 7.7761424,12 7.5,12 7.2238576,12 7,11.776142 7,11.5 7,11.223858 7.2238576,11 7.5,11 Z"/>
</svg>
